Adwaita++-Light/panel/22/remmina-panel.svg

<svg height="22" width="22" xmlns="http://www.w3.org/2000/svg">
  <path d="m11 3a8 8 0 0 0 -8 8 8 8 0 0 0 .9921875 3.857422l1.6738281-1.113281a6 6 0 0 1 -.6660156-2.744141 6 6 0 0 1 6-6 6 6 0 0 1 4.59375 2.1503906l1.671875-1.1132812a8 8 0 0 0 -6.265625-3.0371094zm-3 3.5996094v1.9414062l1.2890625.859375-1.2890625.8593754v1.939453l4.199219-2.7988284zm10.011719.5507812-1.673828 1.1132813a6 6 0 0 1 .662109 2.7363281 6 6 0 0 1 -6 6 6 6 0 0 1 -4.5878906-2.142578l-1.671875 1.111328a8 8 0 0 0 6.2597656 3.03125 8 8 0 0 0 8-8 8 8 0 0 0 -.988281-3.8496094zm-4.011719 2.6503906-4.1992188 2.7988278 4.1992188 2.800782v-1.941407l-1.289062-.859375 1.289062-.859375z" fill="#444"/>
</svg>

<svg xmlns="http://www.w3.org/2000/svg" width="22" height="22" version="1.1">
 <defs>
  <style id="current-color-scheme" type="text/css">
   .ColorScheme-Text { color:#444444; } .ColorScheme-Highlight { color:#4285f4; }
  </style>
 </defs>
 <path style="fill:currentColor" class="ColorScheme-Text" d="M 11 3 A 8 8 0 0 0 3 11 A 8 8 0 0 0 3.9921875 14.857422 L 5.6660156 13.744141 A 6 6 0 0 1 5 11 A 6 6 0 0 1 11 5 A 6 6 0 0 1 15.59375 7.1503906 L 17.265625 6.0371094 A 8 8 0 0 0 11 3 z M 8 6.5996094 L 8 8.5410156 L 9.2890625 9.4003906 L 8 10.259766 L 8 12.199219 L 12.199219 9.4003906 L 8 6.5996094 z M 18.011719 7.1503906 L 16.337891 8.2636719 A 6 6 0 0 1 17 11 A 6 6 0 0 1 11 17 A 6 6 0 0 1 6.4121094 14.857422 L 4.7402344 15.96875 A 8 8 0 0 0 11 19 A 8 8 0 0 0 19 11 A 8 8 0 0 0 18.011719 7.1503906 z M 14 9.8007812 L 9.8007812 12.599609 L 14 15.400391 L 14 13.458984 L 12.710938 12.599609 L 14 11.740234 L 14 9.8007812 z"/>
</svg>
